static/logos/ditto-wordmark-color.svg

<svg width="50" height="18" viewBox="0 0 50 18" fill="none" xmlns="http://www.w3.org/2000/svg">
<g clip-path="url(#clip0_1_3005)">
<path fill-rule="evenodd" clip-rule="evenodd" d="M14.9609 0.634773C13.4492 2.14552 15.0482 4.42408 17.1366 3.73523C18.5757 3.26064 18.9451 1.70589 17.8733 0.634773C17.0264 -0.211591 15.8078 -0.211591 14.9609 0.634773ZM7.98089 4.0667V7.08593L7.51792 6.40798C6.79508 5.34982 5.84282 4.93095 4.3527 5.01608C2.58233 5.11705 1.56051 5.81906 0.778409 7.47169C-0.616035 10.4183 -0.0810576 14.3783 1.93602 16.0398C3.73973 17.5254 6.71566 17.2392 7.6673 15.4885C7.96175 14.9467 7.96442 14.9504 7.97265 15.9185L7.98089 16.8952H10.1438H12.3068L12.2529 9.02994L12.199 1.16468L10.0899 1.10607L7.98089 1.04747V4.0667ZM21.5191 3.68361L21.4582 5.0716L20.6778 5.13596L19.8976 5.20033L19.9576 6.67817L20.0179 8.15602L20.7895 8.21976L21.5611 8.28371V11.5884C21.5611 14.5428 21.6051 14.9644 21.9759 15.564C22.672 16.6896 24.3872 17.2577 26.3494 17.0128C28.1097 16.793 28.0642 16.9166 27.4268 14.0958C27.3504 13.7575 27.2136 13.6831 26.8099 13.76C25.8169 13.9498 25.6763 13.5832 25.6763 10.8041V8.25883H26.7051H27.734V6.72793V5.19704L26.7566 5.13432L25.7792 5.0716L25.7183 3.68361L25.6576 2.29563H23.6187H21.5798L21.5191 3.68361ZM30.2031 3.73502V5.17442H29.4829H28.7628V6.71662V8.25883H29.4691H30.1753L30.2407 11.6373C30.3134 15.3988 30.4243 15.7353 31.8708 16.5868C32.985 17.2427 36.9136 17.1152 36.6895 16.4305C36.6436 16.2902 36.5025 15.6487 36.3759 15.0049C36.1494 13.8521 36.1342 13.8332 35.3864 13.7711L34.627 13.708L34.5695 10.9949L34.5123 8.28186L35.4955 8.21894L36.4788 8.15602L36.5393 6.66522L36.5998 5.17442H35.5619H34.5241V3.73502V2.29563H32.3636H30.2031V3.73502ZM41.4619 5.26428C38.1862 6.43224 36.7274 10.2795 38.2333 13.7779C39.1996 16.0225 41.4889 17.2559 44.2961 17.0437C47.8241 16.777 49.8148 14.6156 49.8303 11.0348C49.8465 7.26544 47.5171 4.95481 43.7241 4.97784C42.908 4.98277 41.8899 5.1117 41.4619 5.26428ZM14.3595 11.0348V16.8952H16.4171H18.4747V11.0348V5.17442H16.4171H14.3595V11.0348ZM44.7751 8.528C45.5842 9.38855 45.729 11.8875 45.0432 13.1524C44.48 14.1912 43.0354 14.1326 42.48 13.0485C41.1121 10.378 43.0066 6.64671 44.7751 8.528ZM7.44817 8.89155C7.90126 9.42947 7.98089 9.72331 7.98089 10.8551C7.98089 12.3901 7.58973 13.3239 6.82512 13.6144C5.42739 14.1453 4.485 13.0514 4.48377 10.8964C4.48315 9.71941 4.55887 9.4342 5.01566 8.89155C5.4136 8.41881 5.72121 8.25883 6.23191 8.25883C6.74261 8.25883 7.05023 8.41881 7.44817 8.89155Z" fill="black"/>
</g>
<defs>
<clipPath id="clip0_1_3005">
<rect width="50" height="17.2727" fill="white"/>
</clipPath>
</defs>
</svg>

<svg xmlns="http://www.w3.org/2000/svg" width="177.778" height="64" fill="none" viewBox="0 0 50 18"><g clip-path="url(#a)"><path fill="#000" fill-rule="evenodd" d="M14.96.635c-1.51 1.51.088 3.79 2.177 3.1 1.439-.474 1.808-2.03.736-3.1-.847-.847-2.065-.847-2.912 0ZM7.98 4.067v3.019l-.462-.678C6.795 5.35 5.843 4.931 4.353 5.016c-1.77.101-2.792.803-3.575 2.456-1.394 2.946-.86 6.906 1.158 8.568 1.804 1.485 4.78 1.2 5.731-.551.295-.542.297-.539.306.43l.008.976h4.326l-.054-7.865-.054-7.865-2.11-.059-2.108-.059v3.02Zm13.54-.383-.062 1.388-.78.064-.78.064.06 1.478.06 1.478.771.064.772.064v3.304c0 2.955.044 3.376.415 3.976.696 1.126 2.411 1.694 4.373 1.449 1.76-.22 1.715-.096 1.078-2.917-.077-.338-.213-.413-.617-.336-.993.19-1.134-.177-1.134-2.956V8.26h2.058V5.197l-.977-.063-.978-.062-.06-1.388-.061-1.388H21.58l-.06 1.388Zm8.683.051v1.44h-1.44v3.084h1.412l.066 3.378c.072 3.762.183 4.098 1.63 4.95 1.114.656 5.043.528 4.819-.157-.046-.14-.188-.781-.314-1.425-.227-1.153-.242-1.172-.99-1.234l-.759-.063-.058-2.713-.057-2.713.983-.063.984-.063.06-1.49.06-1.492h-2.075V2.295h-4.32v1.44Zm11.259 1.53c-3.276 1.167-4.735 5.015-3.229 8.513.967 2.245 3.256 3.478 6.063 3.266 3.528-.267 5.519-2.428 5.534-6.01.017-3.769-2.313-6.08-6.106-6.056-.816.005-1.834.134-2.262.286Zm-27.103 5.77v5.86h4.116V5.175h-4.116v5.86Zm30.416-2.507c.81.86.954 3.36.268 4.624-.563 1.04-2.008.98-2.563-.103-1.368-2.671.527-6.402 2.295-4.521Zm-37.327.364c.453.537.533.831.533 1.963 0 1.535-.391 2.469-1.156 2.76-1.398.53-2.34-.564-2.341-2.719 0-1.177.075-1.462.532-2.004.398-.473.705-.633 1.216-.633.51 0 .818.16 1.216.633Z" clip-rule="evenodd"/></g><defs><clipPath id="a"><path fill="#fff" d="M0 0h50v17.273H0z"/></clipPath></defs></svg>
